X:1
T:Polska
T:efter Alfred Petersson, Nttraby, Blekinge (SvL, Band 18, nr 311)
O:Nttraby, Blekinge
S:Svenska Ltar
N:Svenska Ltar, Band 18 nr 311
R:Polska
C:Alfred Petersson
M:3/4
L:1/16
Q:1/4=80
Z:Konverterad till abc-format av  Olle Paulsson 05-01-03
K:D
(DF)(AF) [E2A,2](.A.E) [E2A,2](.A.E)|(DF)(AF) [E2A,2](.A.E) [E2A,2](.A.E)|D2FA (gf)ga (gf)ec|
(de)af edcB AGFE| (DF)(AF) [E2A,2](.A.E) [E2A,2](.A.E)|(DF)(AF) [E2A,2](.A.E) [E2A,2](.A.E)|
D2FA (gf)ga (gf)ed|(dc)Bc e4 d2 z2::A2de (fe)fg f2f2|
d2ef (ag)(gb) e4|e2f^g (ag)ae dcBA|A2af (ed)cB B2A2|
(Ac)(ec) [B2E2](.e.B) [B2E2](.e.B)|(Ac)(ec) [B2E2](.e.B) [B2E2](.e.B)|(cA)Bc (de)f^g (ag)af|
(ec)dB [B4E4] A2 z2::a4 d'2c'2 b2a2|g2f2 b2a2 g4|(ed)ef (ge)ba (gf)ec|
dfaf edcB AGFE|(DF)(AF) [E2A,2](.A.E) [E2A,2](.A.E)|(DF)(AF) [E2A,2](.A.E) [E2A,2](.A.E)|
D2FA (gf)ga (gf)ed|(dc)Bc e4 d2 z2:|
